X:14758
T:Sailors Delight
M:6/8
L:1/8
S:(should be 9/8 with last bar to finish)
N:(should be 9/8 with last bar to finish
K:D
e|f2ag2e|f2d esges|c3 c2e|f2ag2e|f2d esges|d3d2:|!
e|f2dc2B|A2gf2e|fsafs c2c|c2ef2d|c2B A2g|f2e fsafs|d3d2:|
